!!!OTL: Sanctissima Maria
**kern
*staff1
=1-
*clefC4
*k[]
2.A\
4A\
2G/
2E/
=2
1A
1G
=3
1c
2d\
2A\
=4
1B-
1A
=5
1F
1G
1D
=6
!!linebreak:original
0D
=7
1G
1c
=8
1G
1A
=9
0d
=10
1A
2d\
2G/
=11
1B-
1A
=12
0D
==
*-
!!title: @{OTL}, @{GTL}, ed. @{ENC}
!!!pag:
!!!GTL: Hymnbook D
!!!EFL: 
!!!YEM: Creative Commons CC/BY/NC/SA 4.0
!!!ENC: Marcin Konik
!!!END: 2015-0m-dd
!!!EED: Marcin Konik
!!!EEV: 
!!!ONB: Encoded in vim by Marcin Konik
!!!CharacterEncoding: utf-8
!!!RDF**kern: l=long note in original notation
!!!RDF**kern: i=editorial accidental
!!muse2ps: z14jc180F
!!!COM: Anonim
!!!CDT: [?]
!!!TXO: Polish
!!!ODT: 
!!!GTL: Hymnbook D
!!!ARL: Opactwo św. Wojciecha, Staniątki 
!!!voices:	1
